mikaela-johnson-highlight-squiggle.svg

<svg id="eTD0JIFoe2d1" xmlns="http://www.w3.org/2000/svg" xmlns:xlink="http://www.w3.org/1999/xlink" viewBox="0 0 86.59 5.89" shape-rendering="geometricPrecision" text-rendering="geometricPrecision"><style><![CDATA[#eTD0JIFoe2d2_to {animation: eTD0JIFoe2d2_to__to 3000ms linear infinite normal forwards}@keyframes eTD0JIFoe2d2_to__to { 0% {transform: translate(32.669339px,2.945002px)} 3.333333% {transform: translate(35.669339px,3.039991px)} 6.666667% {transform: translate(38.669339px,2.945002px)} 10% {transform: translate(41.669339px,2.945002px)} 13.333333% {transform: translate(44.669339px,2.945002px)} 16.666667% {transform: translate(44.669339px,2.85001px)} 100% {transform: translate(44.669339px,2.85001px)}} #eTD0JIFoe2d2_tr {animation: eTD0JIFoe2d2_tr__tr 3000ms linear infinite normal forwards}@keyframes eTD0JIFoe2d2_tr__tr { 0% {transform: rotate(180deg)} 3.333333% {transform: rotate(180deg)} 10% {transform: rotate(180deg)} 16.666667% {transform: rotate(180.11891deg)} 100% {transform: rotate(180.11891deg)}}]]></style><g id="eTD0JIFoe2d2_to" transform="translate(32.669339,2.945002)"><g id="eTD0JIFoe2d2_tr" transform="rotate(180)"><path id="eTD0JIFoe2d2" d="M86.36,1.37L80.25,4.54C77.54,5.54,75.25,5.75,72.79,4.14L71.53,3.4C68.86,1.62,65.53,-0.2,62.08,1.13L55.88,3.78C53.755481,4.83357,51.300994,5.006067,49.05,4.26L40.15,1.26C38.035363,0.5583,35.734797,0.672436,33.7,1.58L26.92,4.58C24.292206,5.747881,21.263048,5.580422,18.78,4.13C17.5,3.38,16.21,2.43,14.92,1.68C12.009836,-0.019897,8.390997,0.061295,5.56,1.89C4.14,2.86,1.7,4,0.27,4.91" transform="scale(1.252658,1) translate(-43.315002,-3)" paint-order="stroke fill markers" fill="none" stroke="rgb(204,174,61)" stroke-width="1" stroke-opacity="0.79" stroke-linecap="round" stroke-linejoin="round"/></g></g></svg>

<svg xmlns="http://www.w3.org/2000/svg" viewBox="0 0 86.59 5.89"><defs><style>.cls-1{fill:none;stroke:#000;stroke-linejoin:round;}</style></defs><g id="Layer_2" data-name="Layer 2"><g id="Layer_2-2" data-name="Layer 2"><path class="cls-1" d="M86.36,1.37,80.25,4.54c-2.71,1-5,1.21-7.46-.4L71.53,3.4c-2.67-1.78-6-3.6-9.45-2.27l-6.2,2.65a9,9,0,0,1-6.83.48l-8.9-3a8.93,8.93,0,0,0-6.45.32l-6.78,3a8.94,8.94,0,0,1-8.14-.45c-1.28-.75-2.57-1.7-3.86-2.45a8.94,8.94,0,0,0-9.36.21C4.14,2.86,1.7,4,.27,4.91"/></g></g></svg>
